public/icons/Stack-1.svg

<svg width="236" height="41" viewBox="0 0 236 41" fill="none" xmlns="http://www.w3.org/2000/svg">
<rect x="0.723022" y="0.117676" width="40" height="40" rx="4" fill="#141414"/>
<g opacity="0.3">
<path d="M32.3012 14.9538C32.2998 14.7209 32.2972 14.4881 32.2908 14.255C32.2772 13.7478 32.2472 13.2359 32.1571 12.7341C32.0656 12.2246 31.9161 11.7507 31.6804 11.2878C31.4491 10.8332 31.1466 10.4172 30.7859 10.0564C30.4252 9.69567 30.0092 9.39329 29.5544 9.16183C29.0919 8.92643 28.6179 8.77694 28.1088 8.68546C27.6068 8.59504 27.0949 8.56525 26.5873 8.55152C26.3543 8.5452 26.1215 8.54255 25.8885 8.54111C25.6119 8.53955 25.3352 8.53955 25.0588 8.53955H18.9285H16.3889C16.1122 8.53955 15.8358 8.53955 15.5593 8.54115C15.3263 8.54259 15.0932 8.54524 14.8605 8.55156C14.7336 8.55499 14.6064 8.55944 14.4792 8.56556C14.0976 8.58396 13.7153 8.61769 13.339 8.6855C12.9571 8.75413 12.595 8.85535 12.2428 9.00099C12.1254 9.04949 12.009 9.10299 11.8934 9.16183C11.5523 9.33542 11.2329 9.54891 10.9425 9.79697C10.8456 9.87968 10.752 9.9662 10.6619 10.0564C10.301 10.4171 9.99861 10.8332 9.76727 11.2878C9.5316 11.7507 9.38226 12.2245 9.2907 12.7341C9.20063 13.2359 9.17069 13.7477 9.15704 14.2549C9.15064 14.4881 9.14795 14.7209 9.14643 14.9538C9.14468 15.2304 9.14491 15.507 9.14491 15.7836V19.5588V24.4533C9.14491 24.7301 9.14464 25.0065 9.14643 25.2833C9.14795 25.5162 9.15064 25.749 9.15704 25.9817C9.17069 26.4892 9.20059 27.0012 9.2907 27.5027C9.38226 28.0122 9.5316 28.4864 9.76727 28.9492C9.99861 29.4039 10.301 29.8198 10.6619 30.1804C11.0224 30.5413 11.4386 30.8437 11.8934 31.0753C12.356 31.3107 12.8298 31.46 13.3391 31.5515C13.8408 31.6418 14.353 31.6719 14.8605 31.6854C15.0932 31.6916 15.3263 31.6944 15.5594 31.6957C15.8358 31.6977 16.1123 31.6974 16.389 31.6974H25.0588C25.3352 31.6974 25.6119 31.6977 25.8884 31.6957C26.1214 31.6944 26.3542 31.6916 26.5873 31.6854C27.0949 31.6719 27.6067 31.6418 28.1088 31.5515C28.6179 31.46 29.0918 31.3107 29.5543 31.0753C30.0092 30.8437 30.4252 30.5413 30.7858 30.1804C31.1466 29.8198 31.4491 29.4039 31.6804 28.9492C31.916 28.4864 32.0656 28.0122 32.157 27.5027C32.2472 27.0012 32.2772 26.4892 32.2907 25.9817C32.2971 25.749 32.2997 25.5162 32.3011 25.2833C32.3029 25.0065 32.3028 24.7301 32.3028 24.4533V15.7836C32.3028 15.507 32.3029 15.2304 32.3012 14.9538Z" fill="#141414"/>
<path d="M27.4946 22.8343C27.4941 22.8336 27.4936 22.8331 27.493 22.8324C27.5186 22.7452 27.545 22.6586 27.5674 22.5692C28.5286 18.7398 26.1828 14.2124 22.2132 11.8286C23.9527 14.1868 24.7219 17.0432 24.0385 19.5411C23.9776 19.7639 23.9043 19.9777 23.8233 20.1856C23.7354 20.1278 23.6247 20.0623 23.476 19.9803C23.476 19.9803 19.5273 17.5422 15.2475 13.2298C15.1352 13.1166 17.5297 16.6522 20.2471 19.5232C18.9668 18.8046 15.3988 16.2087 13.1401 14.1413C13.4176 14.6041 13.7477 15.0498 14.1105 15.4788C15.9967 17.8709 18.4567 20.8225 21.4037 23.0889C19.3331 24.3561 16.4072 24.4546 13.4941 23.0902C12.7735 22.7525 12.0962 22.3451 11.4691 21.8822C12.7022 23.8546 14.6014 25.5564 16.9129 26.5499C19.6695 27.7345 22.4107 27.6542 24.4523 26.5693L24.4507 26.5716C24.4601 26.5658 24.4719 26.5593 24.4816 26.5534C24.5654 26.5083 24.6486 26.4624 24.73 26.4139C25.7109 25.9048 27.6485 25.3882 28.6884 27.4117C28.9431 27.9069 29.4843 25.2825 27.4946 22.8343Z" fill="white"/>
</g>
<rect x="65.723" y="0.117676" width="40" height="40" rx="4" fill="#141414"/>
<g opacity="0.3">
<path d="M93.6178 33.2127L95.2453 32.1358C95.3728 32.5365 96.1805 33.4882 97.2008 33.4882C98.221 33.4882 98.6947 32.9309 98.6947 32.5615C98.6947 31.5548 97.6529 31.1998 97.1525 31.0293C97.071 31.0016 97.0038 30.9787 96.9578 30.9587C96.9343 30.9484 96.8987 30.9348 96.8529 30.9173C96.2964 30.7047 94.2433 29.9203 94.2433 27.6465C94.2433 25.142 96.6603 24.854 97.2068 24.854C97.5644 24.854 99.2838 24.8978 100.14 26.507L98.5611 27.6089C98.2149 26.9077 97.6398 26.676 97.2858 26.676C96.4113 26.676 96.2291 27.3171 96.2291 27.6089C96.2291 28.4278 97.1792 28.7948 97.9814 29.1047C98.1913 29.1858 98.3911 29.2629 98.5611 29.3433C99.4356 29.7565 100.723 30.4327 100.723 32.5615C100.723 33.6278 99.8287 35.354 97.5773 35.354C94.553 35.354 93.7514 33.5383 93.6178 33.2127Z" fill="white"/>
<path d="M85.723 33.4265L87.4193 32.3502C87.5523 32.7507 88.0688 33.4891 88.8182 33.4891C89.5676 33.4891 89.9512 32.7194 89.9512 32.3502V25.0909H92.0374V32.3502C92.0711 33.3514 91.5158 35.354 89.065 35.354C86.8117 35.354 85.8749 34.0148 85.723 33.4265Z" fill="white"/>
</g>
<rect x="130.723" y="0.117676" width="40" height="40" rx="4" fill="#141414"/>
<path opacity="0.3" d="M162.853 19.1251L161.806 18.4769C161.798 18.3748 161.788 18.2731 161.777 18.1718L162.677 17.3329C162.769 17.2475 162.81 17.1212 162.785 16.9992C162.761 16.8765 162.675 16.7754 162.558 16.7323L161.407 16.3033C161.378 16.2036 161.348 16.1047 161.317 16.0054L162.034 15.0091C162.107 14.9078 162.122 14.776 162.075 14.6612C162.027 14.546 161.923 14.4636 161.801 14.4433L160.588 14.246C160.54 14.154 160.491 14.0634 160.442 13.9743L160.952 12.8541C161.004 12.7402 160.993 12.6086 160.924 12.5038C160.854 12.3999 160.737 12.3391 160.611 12.3439L159.379 12.3868C159.316 12.3072 159.251 12.2283 159.185 12.1508L159.468 10.952C159.497 10.8302 159.461 10.7018 159.372 10.6136C159.284 10.5254 159.157 10.4889 159.034 10.5175L157.835 10.8011C157.757 10.7354 157.678 10.6703 157.599 10.6067L157.642 9.37449C157.647 9.24984 157.586 9.13139 157.482 9.06227C157.378 8.99268 157.246 8.98219 157.132 9.03391L156.014 9.54394C155.923 9.49437 155.833 9.44527 155.742 9.39784L155.544 8.18474C155.524 8.06176 155.442 7.95737 155.326 7.91065C155.211 7.86275 155.079 7.87824 154.978 7.95117L153.982 8.66855C153.884 8.63733 153.785 8.6073 153.687 8.5787L153.258 7.42756C153.214 7.3103 153.113 7.22426 152.991 7.19995C152.868 7.17588 152.743 7.21663 152.657 7.30767L151.818 8.20857C151.717 8.19737 151.615 8.18712 151.513 8.17878L150.865 7.13012C150.799 7.02406 150.683 6.95947 150.557 6.95947C150.432 6.95947 150.317 7.02406 150.252 7.13012L149.604 8.17878C149.502 8.18712 149.4 8.19737 149.299 8.20857L148.46 7.30767C148.375 7.21663 148.249 7.17588 148.126 7.19995C148.004 7.2245 147.903 7.3103 147.859 7.42756L147.43 8.5787C147.331 8.6073 147.232 8.63757 147.135 8.66855L146.139 7.95117C146.037 7.878 145.905 7.86251 145.791 7.91065C145.676 7.95832 145.593 8.06271 145.573 8.18474L145.375 9.39784C145.284 9.44527 145.193 9.49413 145.103 9.54394L143.986 9.03391C143.872 8.98196 143.74 8.99268 143.635 9.06227C143.531 9.13139 143.471 9.24984 143.475 9.37449L143.518 10.6067C143.439 10.6703 143.36 10.7354 143.282 10.8011L142.083 10.5175C141.961 10.4892 141.833 10.5254 141.745 10.6136C141.656 10.702 141.62 10.8295 141.649 10.952L141.93 12.1508C141.864 12.2285 141.799 12.3072 141.736 12.3868L140.504 12.3439C140.379 12.3403 140.26 12.3999 140.191 12.5038C140.122 12.6072 140.111 12.7397 140.163 12.8541L140.673 13.9743C140.623 14.0641 140.574 14.1547 140.527 14.246L139.314 14.4433C139.191 14.4633 139.087 14.5458 139.04 14.6612C138.992 14.7768 139.008 14.909 139.08 15.0091L139.798 16.0054C139.766 16.1038 139.736 16.2027 139.708 16.3033L138.556 16.7323C138.44 16.7759 138.354 16.8769 138.329 16.9992C138.305 17.1217 138.346 17.2471 138.437 17.3329L139.338 18.1718C139.327 18.2731 139.317 18.3751 139.308 18.4769L138.262 19.1251C138.156 19.1907 138.091 19.3065 138.091 19.4326C138.091 19.5586 138.156 19.6733 138.262 19.7376L139.308 20.3859C139.317 20.4879 139.327 20.5897 139.338 20.691L138.437 21.5299C138.346 21.615 138.305 21.7413 138.329 21.8635C138.354 21.9863 138.44 22.0871 138.556 22.1305L139.708 22.5595C139.736 22.6591 139.766 22.758 139.798 22.8574L139.08 23.8536C139.007 23.9551 138.992 24.0869 139.04 24.2016C139.088 24.3172 139.192 24.3996 139.316 24.4194L140.529 24.6168C140.577 24.7088 140.625 24.7993 140.675 24.8885L140.165 26.0062C140.113 26.1199 140.124 26.2517 140.194 26.3566C140.263 26.4607 140.382 26.5215 140.506 26.5165L141.736 26.4734C141.8 26.5534 141.864 26.6319 141.93 26.7098L141.649 27.9086C141.62 28.0301 141.656 28.1565 141.745 28.2446C141.833 28.3335 141.961 28.3691 142.083 28.3405L143.282 28.0592C143.36 28.1255 143.439 28.1898 143.519 28.2532L143.476 29.4854C143.471 29.61 143.532 29.7285 143.636 29.7976C143.739 29.867 143.872 29.8775 143.986 29.8255L145.104 29.3155C145.194 29.3655 145.285 29.4141 145.376 29.4616L145.573 30.6747C145.593 30.7981 145.676 30.9025 145.791 30.9511C145.906 30.999 146.039 30.9836 146.139 30.9109L147.135 30.1935C147.234 30.2247 147.333 30.2552 147.433 30.2838L147.862 31.435C147.906 31.5517 148.007 31.6382 148.129 31.6621C148.252 31.6869 148.377 31.6459 148.463 31.5544L149.302 30.6535C149.403 30.6651 149.505 30.6749 149.607 30.684L150.255 31.7302C150.32 31.8358 150.437 31.9009 150.56 31.9009C150.684 31.9009 150.801 31.8361 150.868 31.7302L151.516 30.684C151.618 30.6749 151.72 30.6651 151.821 30.6535L152.66 31.5544C152.745 31.6459 152.871 31.6869 152.994 31.6621C153.116 31.638 153.217 31.5517 153.261 31.435L153.69 30.2838C153.789 30.2552 153.888 30.2247 153.987 30.1935L154.984 30.9109C155.085 30.9836 155.217 30.999 155.332 30.9511C155.447 30.9037 155.529 30.7991 155.549 30.6747L155.747 29.4616C155.839 29.4141 155.929 29.3648 156.019 29.3155L157.137 29.8255C157.25 29.8775 157.382 29.867 157.487 29.7976C157.591 29.728 157.652 29.61 157.647 29.4854L157.604 28.2532C157.684 28.1896 157.763 28.1255 157.84 28.0592L159.039 28.3405C159.161 28.3691 159.289 28.3335 159.378 28.2446C159.466 28.1562 159.502 28.0292 159.474 27.9086L159.192 26.7098C159.258 26.6319 159.323 26.5534 159.386 26.4734L160.619 26.5165C160.743 26.5215 160.862 26.4607 160.931 26.3566C161 26.2527 161.011 26.1204 160.959 26.0062L160.449 24.8885C160.499 24.7981 160.548 24.7076 160.595 24.6168L161.808 24.4194C161.931 24.3996 162.035 24.3172 162.082 24.2016C162.13 24.0865 162.115 23.9537 162.041 23.8536L161.324 22.8574C161.355 22.759 161.385 22.6601 161.414 22.5595L162.565 22.1305C162.682 22.0866 162.769 21.9858 162.792 21.8635C162.817 21.741 162.776 21.6157 162.685 21.5299L161.784 20.691C161.795 20.5897 161.805 20.4877 161.814 20.3859L162.86 19.7376C162.966 19.6723 163.03 19.5563 163.03 19.4326C163.03 19.3089 162.966 19.1918 162.86 19.1251H162.853ZM155.846 27.8242C155.445 27.7379 155.193 27.3428 155.278 26.9424C155.364 26.542 155.758 26.287 156.158 26.3728C156.558 26.4583 156.813 26.8542 156.728 27.2546C156.642 27.655 156.248 27.91 155.848 27.8242H155.846ZM155.491 25.4171C155.126 25.3389 154.766 25.571 154.69 25.9366L154.318 27.6717C153.172 28.1913 151.887 28.482 150.552 28.482C149.18 28.482 147.883 28.1793 146.715 27.6359L146.343 25.9009C146.265 25.5362 145.907 25.3027 145.543 25.3813L144.01 25.7102C143.727 25.4171 143.462 25.1049 143.219 24.776H150.679C150.763 24.776 150.819 24.7607 150.819 24.684V22.0385C150.819 21.9617 150.763 21.9465 150.679 21.9465H148.498V20.2758H150.855C151.07 20.2758 152.006 20.3373 152.304 21.5342C152.398 21.9012 152.604 23.0976 152.745 23.4813C152.885 23.9103 153.455 24.7683 154.063 24.7683H157.781C157.823 24.7683 157.868 24.7636 157.916 24.755C157.658 25.1053 157.375 25.4366 157.072 25.7464L155.504 25.4104L155.491 25.4171ZM145.171 27.7885C144.77 27.8748 144.377 27.6197 144.291 27.2189C144.206 26.8185 144.46 26.4228 144.861 26.337C145.261 26.2515 145.655 26.5065 145.74 26.9066C145.826 27.307 145.571 27.7027 145.171 27.7885ZM142.335 16.3247C142.501 16.6989 142.332 17.1374 141.958 17.3043C141.584 17.4704 141.148 17.3014 140.981 16.9277C140.814 16.554 140.984 16.115 141.358 15.9482C141.732 15.7823 142.168 15.951 142.335 16.3247ZM141.465 18.3839L143.062 17.6737C143.402 17.5223 143.557 17.1231 143.405 16.7823L143.076 16.0387H144.368V21.854H141.77C141.544 21.058 141.422 20.2191 141.422 19.3515C141.422 19.0203 141.44 18.6937 141.474 18.372L141.465 18.3839ZM148.472 17.8191V16.1031H151.546C151.705 16.1031 152.669 16.2868 152.669 17.0063C152.669 17.6046 151.93 17.8191 151.322 17.8191H148.462H148.472ZM159.649 19.3634C159.649 19.5913 159.641 19.8163 159.624 20.0403H158.688C158.594 20.0403 158.556 20.1018 158.556 20.1936V20.6226C158.556 21.6331 157.987 21.8547 157.486 21.9095C157.01 21.9632 156.483 21.7103 156.419 21.4186C156.137 19.8384 155.67 19.5024 154.931 18.9161C155.849 18.3346 156.802 17.4742 156.802 16.3183C156.802 15.0766 155.952 14.2948 155.372 13.9111C154.557 13.3749 153.656 13.2676 153.413 13.2676H143.737C145.05 11.8043 146.835 10.7652 148.837 10.3838L149.979 11.5802C150.236 11.8496 150.663 11.8615 150.935 11.6022L152.212 10.3819C154.881 10.88 157.146 12.5436 158.456 14.8387L157.582 16.8121C157.431 17.1529 157.585 17.5533 157.925 17.7035L159.608 18.4518C159.637 18.7497 159.652 19.0524 159.652 19.3575L159.649 19.3634ZM149.973 9.37735C150.269 9.09373 150.738 9.10565 151.019 9.40142C151.301 9.69695 151.291 10.1665 150.995 10.4501C150.699 10.7337 150.23 10.7218 149.949 10.4258C149.667 10.1302 149.677 9.66072 149.973 9.37711V9.37735ZM158.648 16.3605C158.814 15.9863 159.251 15.8171 159.626 15.9839C160 16.1498 160.169 16.5893 160.002 16.9634C159.837 17.3376 159.399 17.5068 159.025 17.34C158.651 17.1741 158.482 16.7346 158.648 16.3605Z" fill="white"/>
<rect x="195.723" y="0.117676" width="40" height="40" rx="4" fill="#141414"/>
<g opacity="0.3">
<path d="M215.607 10.5103V17.2214L221.279 19.7563L215.607 10.5103Z" fill="white" fill-opacity="0.602"/>
<path d="M215.606 10.5103L209.934 19.7563L215.606 17.2214V10.5103Z" fill="white"/>
<path d="M215.607 24.1047V28.6649L221.282 20.812L215.607 24.1047Z" fill="white" fill-opacity="0.602"/>
<path d="M215.606 28.6649V24.1047L209.934 20.812L215.606 28.6649Z" fill="white"/>
<path d="M215.607 23.0488L221.279 19.7561L215.607 17.2212V23.0488Z" fill="white" fill-opacity="0.2"/>
<path d="M209.934 19.7571L215.606 23.0498V17.2222L209.934 19.7571Z" fill="white" fill-opacity="0.602"/>
</g>
</svg>

<svg xmlns="http://www.w3.org/2000/svg" width="236" height="41" fill="none"><rect width="40" height="40" x=".723" y=".118" fill="#141414" rx="4"/><g opacity=".3"><path fill="#141414" d="M32.301 14.954a32.586 32.586 0 0 0-.01-.699 10.148 10.148 0 0 0-.134-1.52 5.13 5.13 0 0 0-.477-1.447 4.861 4.861 0 0 0-2.126-2.126 5.133 5.133 0 0 0-1.445-.477c-.502-.09-1.014-.12-1.522-.133a33.367 33.367 0 0 0-.698-.01c-.277-.002-.554-.002-.83-.002h-8.67l-.83.001a33.337 33.337 0 0 0-1.08.025 8.826 8.826 0 0 0-1.14.12A5.29 5.29 0 0 0 12.243 9a4.863 4.863 0 0 0-2.476 2.287 5.131 5.131 0 0 0-.476 1.446c-.09.502-.12 1.014-.134 1.52-.006.234-.01.467-.01.7-.002.276-.002.553-.002.83v8.669l.001.83c.002.233.005.466.011.699.014.507.044 1.02.134 1.52.091.51.24.984.476 1.447a4.852 4.852 0 0 0 2.126 2.126c.463.236.937.385 1.446.477.502.09 1.014.12 1.521.133.233.007.466.01.7.01.276.003.552.002.829.002h8.67l.83-.001c.232-.002.465-.004.698-.01.508-.014 1.02-.044 1.522-.134.509-.092.983-.241 1.445-.477a4.857 4.857 0 0 0 2.126-2.126 5.13 5.13 0 0 0 .477-1.446c.09-.502.12-1.014.134-1.521.006-.233.009-.466.01-.699.002-.277.002-.553.002-.83v-8.67c0-.276 0-.553-.002-.83Z"/><path fill="#fff" d="m27.495 22.834-.002-.002c.026-.087.052-.173.074-.263.962-3.83-1.384-8.357-5.354-10.74 1.74 2.358 2.509 5.214 1.825 7.712-.06.223-.134.437-.215.645a5.292 5.292 0 0 0-.347-.206s-3.949-2.438-8.228-6.75c-.113-.113 2.282 3.422 5 6.293-1.281-.718-4.85-3.314-7.108-5.382.278.463.608.909.97 1.338 1.887 2.392 4.347 5.344 7.294 7.61-2.07 1.267-4.997 1.366-7.91.001a11.953 11.953 0 0 1-2.025-1.208 12.128 12.128 0 0 0 5.444 4.668c2.756 1.184 5.498 1.104 7.54.02l-.002.002.03-.019c.084-.045.168-.09.249-.14.98-.508 2.918-1.025 3.958.999.255.495.796-2.13-1.193-4.578Z"/></g><rect width="40" height="40" x="65.723" y=".118" fill="#141414" rx="4"/><g fill="#fff" opacity=".3"><path d="m93.618 33.213 1.627-1.077c.128.4.935 1.352 1.956 1.352 1.02 0 1.494-.557 1.494-.926 0-1.007-1.042-1.362-1.542-1.533a2.891 2.891 0 0 1-.195-.07l-.105-.042c-.557-.212-2.61-.997-2.61-3.27 0-2.505 2.417-2.793 2.964-2.793.357 0 2.077.044 2.933 1.653l-1.579 1.102c-.346-.701-.921-.933-1.275-.933-.875 0-1.057.641-1.057.933 0 .819.95 1.186 1.752 1.496.21.08.41.158.58.238.875.413 2.162 1.09 2.162 3.219 0 1.066-.894 2.792-3.146 2.792-3.024 0-3.826-1.816-3.96-2.141ZM85.723 33.426l1.696-1.076c.133.4.65 1.14 1.4 1.14.749 0 1.132-.77 1.132-1.14v-7.26h2.086v7.26c.034 1.001-.521 3.004-2.972 3.004-2.253 0-3.19-1.34-3.342-1.928Z"/></g><rect width="40" height="40" x="130.723" y=".118" fill="#141414" rx="4"/><path fill="#fff" d="m162.853 19.125-1.047-.648a10.225 10.225 0 0 0-.029-.305l.9-.84a.357.357 0 0 0 .108-.333.357.357 0 0 0-.227-.267l-1.151-.429a15.9 15.9 0 0 0-.09-.298l.717-.996a.361.361 0 0 0-.233-.566l-1.213-.197a14.072 14.072 0 0 0-.146-.272l.51-1.12a.362.362 0 0 0-.341-.51l-1.232.043a8.522 8.522 0 0 0-.194-.236l.283-1.199a.36.36 0 0 0-.434-.434l-1.199.283a13.81 13.81 0 0 0-.236-.194l.043-1.233a.36.36 0 0 0-.51-.34l-1.118.51c-.091-.05-.181-.099-.272-.146l-.198-1.213a.36.36 0 0 0-.566-.234l-.996.718a12.648 12.648 0 0 0-.295-.09l-.429-1.151a.36.36 0 0 0-.601-.12l-.839.9a10.635 10.635 0 0 0-.305-.03l-.648-1.048a.362.362 0 0 0-.613 0l-.648 1.049c-.102.008-.204.018-.305.03l-.839-.901a.361.361 0 0 0-.601.12l-.429 1.15-.295.09-.996-.717a.362.362 0 0 0-.566.234l-.198 1.213c-.091.047-.182.096-.272.146l-1.117-.51a.362.362 0 0 0-.511.34l.043 1.233a13.81 13.81 0 0 0-.236.194l-1.199-.284a.362.362 0 0 0-.434.435l.281 1.199a8.829 8.829 0 0 0-.194.236l-1.232-.043a.362.362 0 0 0-.341.51l.51 1.12c-.05.09-.099.18-.146.272l-1.213.197a.36.36 0 0 0-.234.566l.718.996a7.23 7.23 0 0 0-.09.298l-1.152.43a.363.363 0 0 0-.227.266.362.362 0 0 0 .108.334l.901.839c-.011.101-.021.203-.03.305l-1.046.648a.361.361 0 0 0 0 .613l1.046.648c.009.102.019.204.03.305l-.901.839a.362.362 0 0 0 .119.6l1.152.43c.028.1.058.198.09.297l-.718.997a.359.359 0 0 0 .236.565l1.213.198c.048.092.096.182.146.271l-.51 1.118a.36.36 0 0 0 .341.51l1.23-.043c.064.08.128.159.194.237l-.281 1.199a.36.36 0 0 0 .434.432l1.199-.282c.078.066.157.13.237.194l-.043 1.232a.36.36 0 0 0 .51.34l1.118-.51c.09.05.181.1.272.147l.197 1.213a.36.36 0 0 0 .566.236l.996-.718c.099.032.198.062.298.09l.429 1.152a.36.36 0 0 0 .601.12l.839-.901c.101.011.203.02.305.03l.648 1.046a.36.36 0 0 0 .613 0l.648-1.046c.102-.01.204-.019.305-.03l.839.9a.358.358 0 0 0 .601-.119l.429-1.151.297-.09.997.717a.36.36 0 0 0 .565-.236l.198-1.213c.092-.048.182-.097.272-.146l1.118.51a.36.36 0 0 0 .51-.34l-.043-1.233c.08-.063.159-.128.236-.194l1.199.281a.362.362 0 0 0 .435-.431l-.282-1.2c.066-.077.131-.156.194-.236l1.233.044a.362.362 0 0 0 .34-.51l-.51-1.118c.05-.09.099-.181.146-.272l1.213-.198a.357.357 0 0 0 .274-.217.356.356 0 0 0-.041-.348l-.717-.997c.031-.098.061-.197.09-.297l1.151-.43a.36.36 0 0 0 .12-.6l-.901-.839c.011-.101.021-.203.03-.305l1.046-.648a.359.359 0 0 0 .17-.305.365.365 0 0 0-.17-.308h-.007Zm-7.007 8.7a.742.742 0 1 1 .002 0h-.002Zm-.355-2.408a.673.673 0 0 0-.801.52l-.372 1.735a9.132 9.132 0 0 1-7.603-.036l-.372-1.735a.674.674 0 0 0-.8-.52l-1.533.33a9.318 9.318 0 0 1-.791-.935h7.46c.084 0 .14-.015.14-.092v-2.646c0-.076-.056-.091-.14-.091h-2.181v-1.671h2.357c.215 0 1.151.061 1.449 1.258.094.367.3 1.564.441 1.947.14.43.71 1.287 1.318 1.287h3.718a.77.77 0 0 0 .135-.013c-.258.35-.541.682-.844.991l-1.568-.336-.013.007Zm-10.32 2.371a.74.74 0 0 1-.88-.57.74.74 0 1 1 1.449-.312.743.743 0 0 1-.569.883Zm-2.836-11.463a.74.74 0 1 1-1.354.605.74.74 0 0 1 1.354-.605Zm-.87 2.059 1.597-.71a.676.676 0 0 0 .343-.892l-.329-.743h1.292v5.815h-2.598a9.147 9.147 0 0 1-.296-3.482l-.009.012Zm7.007-.565v-1.716h3.074c.159 0 1.123.184 1.123.903 0 .599-.739.813-1.347.813h-2.86.01Zm11.177 1.544c0 .228-.008.453-.025.677h-.936c-.094 0-.132.062-.132.154v.429c0 1.01-.569 1.232-1.07 1.287-.476.053-1.003-.2-1.067-.491-.282-1.58-.749-1.917-1.488-2.503.918-.581 1.871-1.442 1.871-2.598 0-1.241-.85-2.023-1.43-2.407-.815-.536-1.716-.643-1.959-.643h-9.676a9.172 9.172 0 0 1 5.1-2.884l1.142 1.196c.257.27.684.281.956.022l1.277-1.22a9.132 9.132 0 0 1 6.244 4.457l-.874 1.973a.676.676 0 0 0 .343.891l1.683.749c.029.298.044.6.044.905l-.003.006Zm-9.676-9.986a.738.738 0 0 1 1.046.024.743.743 0 0 1-.024 1.05.738.738 0 0 1-1.046-.025.743.743 0 0 1 .024-1.049Zm8.675 6.983a.74.74 0 1 1 1.354.603.739.739 0 0 1-.977.377.743.743 0 0 1-.377-.98Z" opacity=".3"/><rect width="40" height="40" x="195.723" y=".118" fill="#141414" rx="4"/><g fill="#fff" opacity=".3"><path fill-opacity=".602" d="M215.607 10.51v6.711l5.672 2.535-5.672-9.246Z"/><path d="m215.606 10.51-5.672 9.246 5.672-2.535v-6.71Z"/><path fill-opacity=".602" d="M215.607 24.105v4.56l5.675-7.853-5.675 3.293Z"/><path d="M215.606 28.665v-4.56l-5.672-3.293 5.672 7.853Z"/><path fill-opacity=".2" d="m215.607 23.049 5.672-3.293-5.672-2.535v5.828Z"/><path fill-opacity=".602" d="m209.934 19.757 5.672 3.293v-5.828l-5.672 2.535Z"/></g></svg>
